cheesecake-frontend/public/assets/eye.svg

<svg width="37" height="20" viewBox="0 0 37 20" fill="none" xmlns="http://www.w3.org/2000/svg">
<g id="Group">
<g id="Group_2">
<path id="Vector" d="M5.93309 14.7375L5.9331 14.7375C10.1259 17.7317 14.4296 19.2768 18.3748 19.2768C22.3201 19.2768 26.6238 17.7316 30.8166 14.7375L30.8166 14.7375C33.9512 12.4991 35.884 10.2822 35.9493 10.2069L5.93309 14.7375ZM5.93309 14.7375C2.79561 12.497 0.862147 10.2783 0.800651 10.2072L0.800353 10.2068M5.93309 14.7375L0.800353 10.2068M0.800353 10.2068C0.697615 10.0882 0.697496 9.91207 0.800243 9.79323C0.862204 9.72172 2.79562 7.50282 5.93307 5.26245M0.800353 10.2068L35.9493 9.7931M35.9493 9.7931L35.9493 9.793C35.8875 9.72169 33.954 7.50285 30.8166 5.26243C26.6239 2.26842 22.3201 0.723241 18.3748 0.723241C14.4297 0.723241 10.126 2.26849 5.93307 5.26245M35.9493 9.7931C36.0521 9.91172 36.0522 10.0878 35.9495 10.2067L35.9493 9.7931ZM5.93307 5.26245L5.51279 4.67386L5.93307 5.26245ZM6.34235 5.74689C4.30707 7.19515 2.76663 8.6585 1.94761 9.4937L1.45102 10.0001L1.94764 10.5065C2.76646 11.3414 4.30681 12.8048 6.34233 14.2533L6.34235 14.2533C9.11583 16.2268 13.4973 18.6448 18.3748 18.6448C23.2524 18.6448 27.6339 16.2268 30.4074 14.2533C32.4426 12.805 33.9831 11.3415 34.802 10.5065L35.2987 10.0001L34.8021 9.49371C33.9833 8.65874 32.4429 7.1954 30.4074 5.7469C27.6339 3.77325 23.2524 1.35534 18.3748 1.35534C13.4973 1.35534 9.11585 3.77325 6.34235 5.74689ZM6.34235 5.74689L6.76166 6.33617L6.34235 5.74689Z" stroke="black" stroke-width="1.44648"/>
</g>
<g id="Group_3">
<path id="Vector_2" d="M22.1423 5.69626L22.1424 5.69629C22.2736 5.81128 22.2868 6.01088 22.1718 6.14215L22.7159 6.61871L22.1718 6.14215C22.0569 6.27335 21.8573 6.28657 21.726 6.17165C20.7988 5.35931 19.6084 4.91221 18.3749 4.91221C15.5687 4.91221 13.287 7.19406 13.287 10.0001C13.287 12.8062 15.5687 15.088 18.3749 15.088C21.1811 15.088 23.4628 12.8062 23.4628 10.0001C23.4628 9.82567 23.6043 9.68416 23.7788 9.68416C23.9532 9.68416 24.0947 9.82567 24.0947 10.0001V10.0002C24.0949 13.1534 21.5283 15.72 18.375 15.72C15.2217 15.72 12.6551 13.1534 12.6551 10.0001C12.6551 6.84688 15.2217 4.28028 18.375 4.28028C19.7623 4.28028 21.1001 4.7832 22.1423 5.69626Z" stroke="black" stroke-width="1.44648"/>
</g>
<g id="Group_4">
<path id="Vector_3" d="M18.3749 11.3553C17.6283 11.3553 17.0197 10.7468 17.0197 10.0002C17.0197 9.25356 17.6283 8.64499 18.3749 8.64499C19.1216 8.64499 19.7301 9.25355 19.7301 10.0002C19.7301 10.7468 19.1216 11.3553 18.3749 11.3553Z" stroke="black" stroke-width="1.44648"/>
</g>
</g>
</svg>

<?xml version="1.0" encoding="utf-8"?>
<!-- Generator: Adobe Illustrator 28.2.0, SVG Export Plug-In . SVG Version: 6.00 Build 0)  -->
<svg version="1.1" id="Layer_1" xmlns="http://www.w3.org/2000/svg" xmlns:xlink="http://www.w3.org/1999/xlink" x="0px" y="0px"
	 viewBox="0 0 37 20" style="enable-background:new 0 0 37 20;" xml:space="preserve">
<style type="text/css">
	.st0{fill:none;stroke:#FFFFFF;stroke-width:1.4465;}
</style>
<g id="Group">
	<g id="Group_2">
		<path id="Vector" class="st0" d="M5.9,14.7L5.9,14.7c4.2,3,8.5,4.5,12.4,4.5c3.9,0,8.2-1.5,12.4-4.5l0,0c3.1-2.2,5.1-4.5,5.1-4.5
			L5.9,14.7z M5.9,14.7c-3.1-2.2-5.1-4.5-5.1-4.5l0,0 M5.9,14.7l-5.1-4.5 M0.8,10.2c-0.1-0.1-0.1-0.3,0-0.4c0.1-0.1,2-2.3,5.1-4.5
			 M0.8,10.2l35.1-0.4 M35.9,9.8L35.9,9.8c-0.1-0.1-2-2.3-5.1-4.5c-4.2-3-8.5-4.5-12.4-4.5c-3.9,0-8.2,1.5-12.4,4.5 M35.9,9.8
			c0.1,0.1,0.1,0.3,0,0.4L35.9,9.8z M5.9,5.3L5.5,4.7L5.9,5.3z M6.3,5.7c-2,1.4-3.6,2.9-4.4,3.7L1.5,10l0.5,0.5
			c0.8,0.8,2.4,2.3,4.4,3.7h0c2.8,2,7.2,4.4,12,4.4c4.9,0,9.3-2.4,12-4.4c2-1.4,3.6-2.9,4.4-3.7l0.5-0.5l-0.5-0.5
			c-0.8-0.8-2.4-2.3-4.4-3.7c-2.8-2-7.2-4.4-12-4.4C13.5,1.4,9.1,3.8,6.3,5.7z M6.3,5.7l0.4,0.6L6.3,5.7z"/>
	</g>
	<g id="Group_3">
		<path id="Vector_2" class="st0" d="M22.1,5.7L22.1,5.7c0.1,0.1,0.1,0.3,0,0.4l0.5,0.5l-0.5-0.5c-0.1,0.1-0.3,0.1-0.4,0
			c-0.9-0.8-2.1-1.3-3.4-1.3c-2.8,0-5.1,2.3-5.1,5.1c0,2.8,2.3,5.1,5.1,5.1s5.1-2.3,5.1-5.1c0-0.2,0.1-0.3,0.3-0.3
			c0.2,0,0.3,0.1,0.3,0.3v0c0,3.2-2.6,5.7-5.7,5.7s-5.7-2.6-5.7-5.7c0-3.2,2.6-5.7,5.7-5.7C19.8,4.3,21.1,4.8,22.1,5.7z"/>
	</g>
	<g id="Group_4">
		<path id="Vector_3" class="st0" d="M18.4,11.4c-0.7,0-1.4-0.6-1.4-1.4c0-0.7,0.6-1.4,1.4-1.4c0.7,0,1.4,0.6,1.4,1.4
			C19.7,10.7,19.1,11.4,18.4,11.4z"/>
	</g>
</g>
</svg>
